X:1
T:Bill Grogan's Goat
M:4/4
L:1/4
K:C
 G| A E G2-| G3 c| d c A2-| A z z c| c A B2-| B2 z G| A E G2-| G2 z G|\
 A E G2-| G2 z c| d c A2-| A2 z d| d c B2-| B2 z G| A B c2-| c3||
